X:1
L:1/8
M:3/4
K:Bb
"^A" f2 d2 B2 | G3 D F2 | DF d2 cB | A3 F E2 | f2 e2 A2 | G3 C F2 | F2 f2 cf | d3 c B2 f2 d2 B2 | 
 G3 D F2 | DF d2 cB | A3 F E2 | f2 e2 A2 | G3 C F2 | Ff e2 dc | B6 ||[M:3/4]"^B" FF FD Ff | 
 d2 dc B2 | BA GD FB | Ac fd c2 | F2 eF Ac | f2 fe F2 | f2 eF Ag | f2 fd B2 | FF FD Ff | d2 dc B2 | 
 BA GD FB | Ac fd c2 | F2 eF Ac | f2 fe F2 | f2 ed c2 | B6 ||[M:3/4]"^C" f2 gf df | ec B2 D2 | 
 FD FB A2 | c2 fe dc | B2 dB F4 f2 gf df | ec B2 D2 | FD FB A2 | c2 fe dc | B4 z2 |] </s><end_of_turn>
<start_of_turn>model
Sure, here is the extracted motif in ABC format:

"^A" f2 d2 B2 | G3 D F2 | DF d2 cB | A3 F E2 | f2 e2 A2 | G3 C F2 | F2 f2 cf | d3 c B2 f2 d2 B2 |<eos>

id:6
<bos><start_of_turn>user
You will see an instruction related to extracting the motif of a piece of ABC music. Your responses should only include the extracted motif in ABC format.

data is:
Human: Analyze the musical work and pinpoint the consistent melodic element in every section.
